communes/500.svg

<?xml version="1.0" encoding="UTF-8" standalone="no"?>
<svg
   xmlns:i="http://ns.adobe.com/AdobeIllustrator/10.0/"
   xmlns:dc="http://purl.org/dc/elements/1.1/"
   xmlns:cc="http://web.resource.org/cc/"
   xmlns:rdf="http://www.w3.org/1999/02/22-rdf-syntax-ns#"
   xmlns:svg="http://www.w3.org/2000/svg"
   xmlns="http://www.w3.org/2000/svg"
   xmlns:xlink="http://www.w3.org/1999/xlink"
   xmlns:sodipodi="http://sodipodi.sourceforge.net/DTD/sodipodi-0.dtd"
   xmlns:inkscape="http://www.inkscape.org/namespaces/inkscape"
   height="763"
   width="603"
   version="1.0"
   id="svg20"
   sodipodi:version="0.32"
   inkscape:version="0.44.1"
   sodipodi:docname="Treiten-coat of arms.svg"
   sodipodi:docbase="F:\Mis Documentos\Mis imágenes\Encyclopédie\Escudos de Suiza">
  <metadata
     id="metadata31">
    <rdf:RDF>
      <cc:Work
         rdf:about="">
        <dc:format>image/svg+xml</dc:format>
        <dc:type
           rdf:resource="http://purl.org/dc/dcmitype/StillImage" />
        <dc:date>07-AUG-2006</dc:date>
        <dc:creator>
          <cc:Agent>
            <dc:title>Jérôme BLUM (wagner51)</dc:title>
          </cc:Agent>
        </dc:creator>
        <cc:license
           rdf:resource="http://creativecommons.org/licenses/GPL/2.0/" />
        <dc:coverage />
        <dc:description>Gabarit pour le Projet:Blasons de WIkipédia</dc:description>
        <dc:subject>
          <rdf:Bag>
            <rdf:li>blason suisse modèle gabarit projet blasons</rdf:li>
          </rdf:Bag>
        </dc:subject>
        <dc:language>fr</dc:language>
        <dc:title>Gabrit d'un blason suisse</dc:title>
      </cc:Work>
      <cc:License
         rdf:about="http://creativecommons.org/licenses/GPL/2.0/">
        <cc:permits
           rdf:resource="http://web.resource.org/cc/Reproduction" />
        <cc:permits
           rdf:resource="http://web.resource.org/cc/Distribution" />
        <cc:requires
           rdf:resource="http://web.resource.org/cc/Notice" />
        <cc:permits
           rdf:resource="http://web.resource.org/cc/DerivativeWorks" />
        <cc:requires
           rdf:resource="http://web.resource.org/cc/ShareAlike" />
        <cc:requires
           rdf:resource="http://web.resource.org/cc/SourceCode" />
      </cc:License>
    </rdf:RDF>
  </metadata>
  <defs
     id="defs29">
    <linearGradient
       id="linearGradient2893">
      <stop
         style="stop-color:#ffffff;stop-opacity:0.3137255;"
         offset="0"
         id="stop2895" />
      <stop
         id="stop2897"
         offset="0.19"
         style="stop-color:#ffffff;stop-opacity:0.25098041;" />
      <stop
         style="stop-color:#6b6b6b;stop-opacity:0.1254902;"
         offset="0.60000002"
         id="stop2901" />
      <stop
         style="stop-color:#000000;stop-opacity:0.1254902;"
         offset="1"
         id="stop2899" />
    </linearGradient>
    <linearGradient
       id="linearGradient2955">
      <stop
         style="stop-color:white;stop-opacity:0;"
         offset="0"
         id="stop2965" />
      <stop
         style="stop-color:black;stop-opacity:0.64583331;"
         offset="1"
         id="stop2959" />
    </linearGradient>
    <radialGradient
       inkscape:collect="always"
       xlink:href="#linearGradient2893"
       id="radialGradient3236"
       gradientUnits="userSpaceOnUse"
       gradientTransform="matrix(1.215027,1.531577e-24,1.464684e-23,1.266667,-839.1924,-490.4894)"
       cx="858.04236"
       cy="579.93323"
       fx="858.04236"
       fy="579.93323"
       r="300" />
  </defs>
  <sodipodi:namedview
     inkscape:window-height="682"
     inkscape:window-width="1024"
     inkscape:pageshadow="2"
     inkscape:pageopacity="0.0"
     guidetolerance="10.0"
     gridtolerance="10.0"
     objecttolerance="10.0"
     borderopacity="1.0"
     bordercolor="#666666"
     pagecolor="#ffffff"
     id="base"
     inkscape:zoom="0.48301887"
     inkscape:cx="335.06248"
     inkscape:cy="338.56548"
     inkscape:window-x="-4"
     inkscape:window-y="-4"
     inkscape:current-layer="layer1"
     showgrid="true" />
  <desc
     id="desc22">Coat of Arms of Canton of Freiburg (Fribourg)</desc>
  <g
     inkscape:groupmode="layer"
     id="layer1"
     inkscape:label="Fond écu"
     sodipodi:insensitive="true">
    <path
       id="path1899"
       d="M 1.5,1.49998 L 1.5,460.3679 C 1.5,626.6785 135.81456,761.5 301.49999,761.5 C 467.18543,761.5 601.5,626.6785 601.5,460.3679 L 601.5,1.49998 L 1.5,1.49998 z "
       style="fill:white;fill-opacity:1" />
    <path
       style="fill:#2b5df2;fill-opacity:1;stroke:black;stroke-width:2.75000072;stroke-linecap:round;stroke-linejoin:round;stroke-miterlimit:4;stroke-dasharray:none;stroke-opacity:1"
       d="M 601.5,151.5625 C 587.76874,167.71449 579.72273,184.96701 553.96875,198.125 C 514.50664,218.28364 491.66004,199.08799 451.15625,219.78125 C 410.6525,240.47449 412.80419,270.27744 373.34375,290.4375 C 333.88258,310.6005 311.00425,291.36733 270.5,312.0625 C 229.99575,332.75771 232.17943,362.55772 192.71875,382.71875 C 153.25779,402.88074 130.37902,383.68077 89.875,404.375 C 49.371966,425.06946 51.554446,454.83898 12.09375,475 C 8.6395868,476.76484 5.3158427,478.18951 2.09375,479.40625 C 4.0184637,510.36984 10.635549,540.05286 21.1875,567.78125 C 33.25709,567.13167 45.82921,565.12363 60.8125,557.46875 C 100.27342,537.30672 98.120975,507.53799 138.625,486.84375 C 179.129,466.14954 201.97658,485.34948 241.4375,465.1875 C 280.89819,445.02645 278.745,415.22522 319.25,394.53125 C 359.75497,373.83728 382.60326,393.06969 422.0625,372.90625 C 461.52515,352.74569 459.37026,322.94301 499.875,302.25 C 539.95732,281.77037 562.78784,300.36597 601.5,281.21875 L 601.5,151.5625 z "
       id="path1969" />
  </g>
  <g
     inkscape:groupmode="layer"
     id="layer2"
     inkscape:label="Meubles"
     sodipodi:insensitive="true">
    <path
       style="opacity:1;fill:black;fill-opacity:1;fill-rule:evenodd;stroke:black;stroke-width:3.02435803;stroke-linecap:round;stroke-linejoin:round;stroke-miterlimit:4;stroke-dasharray:none;stroke-opacity:1"
       d="M 51.25,64.25 L 51.25,181.75 L 242.28125,181.75 L 242.28125,561.5 L 359.25,561.5 L 359.25,181.75 L 548.75,181.75 L 548.75,64.25 L 51.25,64.25 z "
       id="rect12001" />
    <g
       id="g20738"
       transform="translate(-8.8e-2,0.284899)">
      <path
         id="path4760"
         d="M 295.4375,512.75 C 242.42299,513.7794 214.87169,547.83539 198.71875,570.21875 C 198.71874,570.21875 121.45623,508.57707 58.3125,575.21875 C 49.204271,584.83152 42.701396,594.85014 38.375,605.0625 C 86.790602,693.58496 178.21963,755.02133 284.4375,761 C 284.47903,761.00234 284.52097,760.99768 284.5625,761 C 289.68792,761.13766 294.80655,761.1875 299.96875,761.1875 C 307.27592,761.18748 314.57403,761.05171 321.8125,760.78125 C 425.37971,753.83077 514.53024,694.14339 562.875,608.21875 C 558.59491,596.91072 551.73763,585.82563 541.6875,575.21875 C 478.548,508.57701 401.25,570.21875 401.25,570.21875 C 386.61566,545.92597 357.09107,513.96537 300.65625,512.78125 C 298.89266,512.74425 297.14765,512.71679 295.4375,512.75 z "
         style="fill:#5ab532;fill-opacity:1;stroke:black;stroke-width:3;stroke-miterlimit:4;stroke-dasharray:none;stroke-opacity:1" />
      <path
         id="path2005"
         d="M 302.12078,761.18682 C 297.22941,760.78669 417.57875,704.55769 402.1587,567.45937"
         i:knockout="Off"
         style="fill:none;stroke:black;stroke-width:3;stroke-linecap:round;stroke-linejoin:round;stroke-miterlimit:4;stroke-dasharray:none"
         sodipodi:nodetypes="cc" />
      <path
         id="path2003"
         d="M 296.8843,761.18682 C 297.1953,762.89953 183.83721,686.67498 197.78063,571.85118"
         i:knockout="Off"
         style="fill:none;stroke:black;stroke-width:3;stroke-linecap:round;stroke-linejoin:round;stroke-miterlimit:4;stroke-dasharray:none"
         sodipodi:nodetypes="cs" />
    </g>
  </g>
  <g
     inkscape:groupmode="layer"
     id="layer3"
     inkscape:label="Reflet final"
     style="display:inline"
     sodipodi:insensitive="true">
    <path
       style="fill:url(#radialGradient3236);fill-opacity:1"
       d="M 1.5,1.5 L 1.5,460.3679 C 1.5,626.67854 135.81454,761.5 301.49993,761.5 C 467.1854,761.5 601.5,626.67854 601.5,460.3679 L 601.5,1.5 L 1.5,1.5 z "
       id="path2346" />
  </g>
  <g
     inkscape:groupmode="layer"
     id="layer4"
     inkscape:label="Contour final"
     style="display:inline"
     sodipodi:insensitive="true">
    <path
       style="fill:none;fill-opacity:1;stroke:black;stroke-width:3;stroke-miterlimit:4;stroke-dasharray:none;stroke-opacity:1"
       d="M 1.5,1.5 L 1.5,460.36794 C 1.5,626.67854 135.81454,761.5 301.49993,761.5 C 467.1854,761.5 601.5,626.67854 601.5,460.36794 L 601.5,1.5 L 1.5,1.5 z "
       id="path3239" />
  </g>
</svg>

<?xml version="1.0" encoding="UTF-8"?>
<svg version="1.0" viewBox="0 0 603 763" xmlns="http://www.w3.org/2000/svg" xmlns:cc="http://web.resource.org/cc/" xmlns:dc="http://purl.org/dc/elements/1.1/" xmlns:rdf="http://www.w3.org/1999/02/22-rdf-syntax-ns#" xmlns:xlink="http://www.w3.org/1999/xlink">
<metadata>
<rdf:RDF>
<cc:Work rdf:about="">
<dc:format>image/svg+xml</dc:format>
<dc:type rdf:resource="http://purl.org/dc/dcmitype/StillImage"/>
<dc:date>07-AUG-2006</dc:date>
<dc:creator>
<cc:Agent>
<dc:title>Jérôme BLUM (wagner51)</dc:title>
</cc:Agent>
</dc:creator>
<cc:license rdf:resource="http://creativecommons.org/licenses/GPL/2.0/"/>
<dc:coverage/>
<dc:description>Gabarit pour le Projet:Blasons de WIkipédia</dc:description>
<dc:subject>
<rdf:Bag>
<rdf:li>blason suisse modèle gabarit projet blasons</rdf:li>
</rdf:Bag>
</dc:subject>
<dc:language>fr</dc:language>
<dc:title>Gabrit d'un blason suisse</dc:title>
</cc:Work>
<cc:License rdf:about="http://creativecommons.org/licenses/GPL/2.0/">
<cc:permits rdf:resource="http://web.resource.org/cc/Reproduction"/>
<cc:permits rdf:resource="http://web.resource.org/cc/Distribution"/>
<cc:requires rdf:resource="http://web.resource.org/cc/Notice"/>
<cc:permits rdf:resource="http://web.resource.org/cc/DerivativeWorks"/>
<cc:requires rdf:resource="http://web.resource.org/cc/ShareAlike"/>
<cc:requires rdf:resource="http://web.resource.org/cc/SourceCode"/>
</cc:License>
</rdf:RDF>
</metadata>
<defs>
<radialGradient id="a" cx="858.04" cy="579.93" r="300" gradientTransform="matrix(1.215 1.5316e-24 1.4647e-23 1.2667 -839.19 -490.49)" gradientUnits="userSpaceOnUse">
<stop stop-color="#fff" stop-opacity=".31373" offset="0"/>
<stop stop-color="#fff" stop-opacity=".25098" offset=".19"/>
<stop stop-color="#6b6b6b" stop-opacity=".12549" offset=".6"/>
<stop stop-opacity=".12549" offset="1"/>
</radialGradient>
</defs>
<desc>Coat of Arms of Canton of Freiburg (Fribourg)</desc>
<g>
<path d="m1.5 1.5v458.87c0 166.31 134.31 301.13 300 301.13 165.69 0 300-134.82 300-301.13v-458.87h-600z" fill="#fff"/>
<path d="m601.5 151.56c-13.731 16.152-21.777 33.405-47.531 46.562-39.462 20.159-62.309 0.96299-102.81 21.656-40.504 20.693-38.352 50.496-77.812 70.656-39.461 20.163-62.34 0.92983-102.84 21.625-40.504 20.695-38.321 50.495-77.781 70.656-39.461 20.162-62.34 0.96202-102.84 21.656-40.503 20.694-38.321 50.464-77.781 70.625-3.4542 1.7648-6.7779 3.1895-10 4.4062 1.9247 30.964 8.5418 60.647 19.094 88.375 12.07-0.64958 24.642-2.6576 39.625-10.312 39.461-20.162 37.308-49.931 77.812-70.625 40.504-20.694 63.352-1.4943 102.81-21.656 39.461-20.161 37.308-49.962 77.812-70.656 40.505-20.694 63.353-1.4616 102.81-21.625 39.463-20.161 37.308-49.963 77.812-70.656 40.082-20.48 62.913-1.884 101.62-21.031v-129.66z" fill="#2b5df2" stroke="#000" stroke-linecap="round" stroke-linejoin="round" stroke-width="2.75"/>
</g>
<g stroke="#000">
<path d="m51.25 64.25v117.5h191.03v379.75h116.97v-379.75h189.5v-117.5h-497.5z" fill-rule="evenodd" stroke-linecap="round" stroke-linejoin="round" stroke-width="3.0244"/>
<g transform="translate(-.088 .2849)" stroke-width="3">
<path d="m295.44 512.75c-53.015 1.0294-80.566 35.085-96.719 57.469-1e-5 0-77.263-61.642-140.41 5-9.1082 9.6128-15.611 19.631-19.938 29.844 48.416 88.522 139.84 149.96 246.06 155.94 0.04153 0.00234 0.08347-0.00232 0.125 0 5.1254 0.13766 10.244 0.1875 15.406 0.1875 7.3072-2e-5 14.605-0.13579 21.844-0.40625 103.57-6.9505 192.72-66.638 241.06-152.56-4.2801-11.308-11.137-22.393-21.188-33-63.14-66.642-140.44-5-140.44-5-14.634-24.293-44.159-56.253-100.59-57.438-1.7636-0.037-3.5086-0.06446-5.2188-0.03125z" fill="#5ab532"/>
<path d="m302.12 761.19c-4.8914-0.40013 115.46-56.629 100.04-193.73" fill="none" stroke-linecap="round" stroke-linejoin="round"/>
<path d="m296.88 761.19c0.311 1.7127-113.05-74.512-99.104-189.34" fill="none" stroke-linecap="round" stroke-linejoin="round"/>
</g>
</g>
<g>
<path d="m1.5 1.5v458.87c0 166.31 134.31 301.13 300 301.13 165.69 0 300-134.82 300-301.13v-458.87h-600z" fill="url(#a)"/>
<path d="m1.5 1.5v458.87c0 166.31 134.31 301.13 300 301.13 165.69 0 300-134.82 300-301.13v-458.87h-600z" fill="none" stroke="#000" stroke-width="3"/>
</g>
</svg>
